X: 3444
T: GALOP DE GUSTAVUS
%R: galop, polka, reel
B: James Kerr "Merry Melodies" v.3 p.51 #444
Z: 2016 John Chambers <jc:trillian.mit.edu>
M: 2/4
L: 1/16
K: D
A2 |\
A2dc d2A2 | A2dc d2A2 | A2d2A2f2 | d2b2a2z2 |\
g2ba b2g2 | f2a^g a2f2 | e2gf g2e2 | f2d2d2 :|
|: a2 |\
d'2c'2b2a2 | d'2c'2b2a2 | d'2c'2b2a2 | g2e2e2a2 |\
c'2b2a2g2 | c'2b2a2g2 | c'2b2a2g2 | f2d2d2 :|

%%sep 1 1 500
%%sep 1 1 500

